X: 10004
T: Devlin's
R: jig
M: 6/8
K: Bminor
|:d3 B2 A|FBB B2 c|dcd Bed|cBc ABc|
d3 ede|fba f2 e|dcB AFE|1 FBB B2 c:|2 FBB B2 ^g||
|:a3 f3|ecB A2 F|E2 A cBA|Bce f2 e|
dcd B2 A|FBB Bcd|efg f2 e|1 dBB B2 ^g:|2 dBB B2 c||

